src/icons/mem.svg

<?xml version="1.0" encoding="UTF-8"?>
<svg xmlns="http://www.w3.org/2000/svg" xmlns:xlink="http://www.w3.org/1999/xlink" width="32" height="32" viewBox="0 0 32 32" version="1.1">
<g id="surface1">
<path style=" stroke:none;fill-rule:nonzero;fill:rgb(0%,0%,0%);fill-opacity:1;" d="M 5.761719 0 C 5.054688 0 4.480469 0.574219 4.480469 1.28125 L 4.480469 30.71875 C 4.480469 31.425781 5.054688 32 5.761719 32 L 22.398438 32 C 22.753906 32 23.039062 31.714844 23.039062 31.359375 L 23.039062 0.640625 C 23.039062 0.289062 22.753906 0 22.398438 0 Z M 23.679688 1.28125 L 23.679688 3.839844 L 24.960938 3.839844 L 24.960938 5.121094 L 23.679688 5.121094 L 23.679688 6.398438 L 24.960938 6.398438 L 24.960938 7.679688 L 23.679688 7.679688 L 23.679688 8.960938 L 24.960938 8.960938 L 24.960938 10.238281 L 23.679688 10.238281 L 23.679688 11.519531 L 24.960938 11.519531 L 24.960938 12.800781 L 23.679688 12.800781 L 23.679688 19.199219 L 24.960938 19.199219 L 24.960938 20.480469 L 23.679688 20.480469 L 23.679688 21.761719 L 24.960938 21.761719 L 24.960938 23.039062 L 23.679688 23.039062 L 23.679688 24.320312 L 24.960938 24.320312 L 24.960938 25.601562 L 23.679688 25.601562 L 23.679688 26.878906 L 24.960938 26.878906 L 24.960938 28.160156 L 23.679688 28.160156 L 23.679688 30.71875 L 26.238281 30.71875 C 26.949219 30.71875 27.519531 30.148438 27.519531 29.441406 L 27.519531 17.28125 C 27.519531 16.925781 27.234375 16.640625 26.878906 16.640625 L 25.601562 16.640625 C 25.246094 16.640625 24.960938 16.351562 24.960938 16 C 24.960938 15.648438 25.246094 15.359375 25.601562 15.359375 L 26.878906 15.359375 C 27.234375 15.359375 27.519531 15.074219 27.519531 14.71875 L 27.519531 2.558594 C 27.519531 1.855469 26.949219 1.28125 26.238281 1.28125 Z M 9.601562 3.199219 L 17.921875 3.199219 L 17.921875 7.679688 L 9.601562 7.679688 Z M 9.601562 10.238281 L 17.921875 10.238281 L 17.921875 14.71875 L 9.601562 14.71875 Z M 9.601562 17.28125 L 17.921875 17.28125 L 17.921875 21.761719 L 9.601562 21.761719 Z M 9.601562 24.320312 L 17.921875 24.320312 L 17.921875 28.800781 L 9.601562 28.800781 Z M 9.601562 24.320312 "/>
</g>
</svg>

<svg role="img" viewBox="0 0 32 32" xmlns="http://www.w3.org/2000/svg"><path d="M5.762 0C5.055 0 4.48.574 4.48 1.281V30.72c0 .707.575 1.281 1.282 1.281h16.636a.638.638 0 0 0 .641-.64V.64A.641.641 0 0 0 22.4 0ZM23.68 1.281V3.84h1.28v1.28h-1.28v1.277h1.28V7.68h-1.28v1.28h1.28v1.278h-1.28v1.282h1.28v1.28h-1.28v6.4h1.28v1.28h-1.28v1.282h1.28v1.277h-1.28v1.281h1.28v1.282h-1.28v1.277h1.28v1.281h-1.28v2.559h2.558c.711 0 1.282-.57 1.282-1.278v-12.16a.639.639 0 0 0-.641-.64h-1.277a.641.641 0 0 1 0-1.282h1.277c.355 0 .64-.285.64-.64V2.559c0-.704-.57-1.278-1.28-1.278ZM9.602 3.2h8.32v4.48h-8.32Zm0 7.04h8.32v4.48h-8.32Zm0 7.042h8.32v4.48h-8.32Zm0 7.04h8.32v4.48h-8.32Zm0 0" style="stroke:none;fill-rule:nonzero;fill:rgb(0%,0%,0%);fill-opacity:1"/></svg>
